icons/chevron-break-right.svg

<svg width="24" height="24" viewBox="0 0 24 24" fill="none" xmlns="http://www.w3.org/2000/svg">
<path fill-rule="evenodd" clip-rule="evenodd" d="M7.11968 18.1303C6.82679 17.8374 6.82679 17.3625 7.11968 17.0696L12.0196 12.1697L12.55 12.7L12.0196 12.1697C12.0835 12.1058 12.1 12.0448 12.1 12C12.1 11.9552 12.0835 11.8942 12.0196 11.8303L12.55 11.3L12.0196 11.8303L7.11968 6.93032C6.82679 6.63743 6.82679 6.16255 7.11968 5.86966C7.41258 5.57677 7.88745 5.57677 8.18034 5.86966L13.0803 10.7697C13.7732 11.4626 13.7732 12.5374 13.0803 13.2303L8.18034 18.1303C7.88745 18.4232 7.41258 18.4232 7.11968 18.1303Z" fill="black"/>
<path fill-rule="evenodd" clip-rule="evenodd" d="M16.35 18.75C15.9358 18.75 15.6 18.4142 15.6 18L15.6 6C15.6 5.58579 15.9358 5.25 16.35 5.25C16.7642 5.25 17.1 5.58579 17.1 6L17.1 18C17.1 18.4142 16.7642 18.75 16.35 18.75Z" fill="black"/>
</svg>

<svg xmlns="http://www.w3.org/2000/svg" fill="none" viewBox="0 0 24 24">
  <path fill="#000" fill-rule="evenodd" d="M7.12 18.13a.75.75 0 0 1 0-1.06l4.9-4.9.53.53-.53-.53a.24.24 0 0 0 .08-.17.24.24 0 0 0-.08-.17l.53-.53-.53.53-4.9-4.9a.75.75 0 0 1 1.06-1.06l4.9 4.9a1.716 1.716 0 0 1 0 2.46l-4.9 4.9a.75.75 0 0 1-1.06 0Zm9.23.62a.75.75 0 0 1-.75-.75V6a.75.75 0 0 1 1.5 0v12a.75.75 0 0 1-.75.75Z" clip-rule="evenodd"/>
</svg>
